icons/linear-new-tool-odometer-data-dashboard.svg

<svg xmlns="http://www.w3.org/2000/svg" width="32px" height="32px" viewBox="0 0 32 32" version="1.1">
    <title>linear-new-tool-odometer-data-dashboard</title>
    <g id="linear-new-tool-odometer-data-dashboard" stroke-width="1" fill-rule="evenodd">
        <path d="M26.2530483,7.24695167 C31.9156506,12.9095539 31.9156506,22.0904461 26.2530483,27.7530483 C25.862524,28.1435726 25.2293591,28.1435726 24.8388348,27.7530483 C24.4483105,27.362524 24.4483105,26.7293591 24.8388348,26.3388348 C29.7203884,21.4572811 29.7203884,13.5427189 24.8388348,8.66116524 C19.9572811,3.77961159 12.0427189,3.77961159 7.16116524,8.66116524 C2.27961159,13.5427189 2.27961159,21.4572811 7.16116524,26.3388348 C7.55168953,26.7293591 7.55168953,27.362524 7.16116524,27.7530483 C6.77064094,28.1435726 6.13747596,28.1435726 5.74695167,27.7530483 C0.0843494427,22.0904461 0.0843494427,12.9095539 5.74695167,7.24695167 C11.4095539,1.58434944 20.5904461,1.58434944 26.2530483,7.24695167 Z M16,7 C17.3333333,7 17.3333333,9 16,9 C11.3055796,9 7.5,12.8055796 7.5,17.5 C7.5,19.7859202 8.40517209,21.9259874 9.98959236,23.5104076 C10.3801167,23.9009319 10.3801167,24.5340969 9.98959236,24.9246212 C9.59906807,25.3151455 8.96590309,25.3151455 8.5753788,24.9246212 C6.61960396,22.9688464 5.5,20.3218053 5.5,17.5 C5.5,11.7010101 10.2010101,7 16,7 Z M16,11 C16.5522847,11 17,11.4477153 17,12 L17.0000725,19.2676063 C17.5978339,19.6134261 18,20.2597476 18,21 C18,22.1045695 17.1045695,23 16,23 C14.8954305,23 14,22.1045695 14,21 C14,20.2601625 14.4017154,19.6141507 14.9989225,19.2681881 L15,12 C15,11.4477153 15.4477153,11 16,11 Z" id="&#24418;&#29366;" fill-rule="nonzero" />
    </g>
</svg>

<svg xmlns="http://www.w3.org/2000/svg" viewBox="0 0 32 32"><path fill="currentColor" d="M26.253 7.247c5.663 5.663 5.663 14.843 0 20.506a1 1 0 1 1-1.414-1.414c4.881-4.882 4.881-12.796 0-17.678-4.882-4.881-12.796-4.881-17.678 0-4.881 4.882-4.881 12.796 0 17.678a1 1 0 1 1-1.414 1.414C.084 22.09.084 12.91 5.747 7.247s14.843-5.663 20.506 0M16 7c1.333 0 1.333 2 0 2a8.5 8.5 0 0 0-8.5 8.5c0 2.286.905 4.426 2.49 6.01a1 1 0 1 1-1.415 1.415A10.468 10.468 0 0 1 5.5 17.5C5.5 11.701 10.201 7 16 7m0 4a1 1 0 0 1 1 1v7.268a2 2 0 1 1-2.001 0L15 12a1 1 0 0 1 1-1"/></svg>
